X:1
T:Title
%%score { 1 | 2 }
L:1/8
Q:1/4=84
M:6/8
K:C
V:1 treble nm="Grand Piano"
V:2 treble 
V:1
 BBB BAG | D2 E D3 | DGB [^FA]3 | [^FA][Fd][Ac] B3 | BBB BAG | D2 E D3 | D^F[CFA] [EFc][DFB][CDA] | %7
w: M.~L.~McPhail * * * * *|||||||
 [G,B,DG]6 | [DBd][DBd][DBd] [DBd][DAc][DGB] | [Ac]2 [Ac] [^FA]3 | [Ac][Ac][Ac] [Ac][Bd][Ac] | B6 | %12
w: |||||
 BBB [GB][Gc][Gd] | [Ge]2 [Ge] [Gd]3 | [Bd]>[Ac][GB] [Ac]<[GB][DA] | [B,DG]6 |] %16
w: ||||
V:2
 [G,DG][G,DG][G,DG] [G,DG][G,CD][K:bass][G,B,D] | [G,B,]2 [G,_B,^C] [G,=B,]3 | %2
 [G,B,][K:treble][G,B,D][G,DG][K:bass] [D,D]3 | [D,D][D,D][D,D][K:treble] [G,DG]3 | %4
 [G,DG][G,DG][G,DG] [G,DG][K:bass][G,CD][G,B,D] | [G,B,]2 [G,_B,^C] [G,=B,]3 | %6
 [D,^F,C][D,A,C]D, D,D,D, | G,,6 | G,G,G, G,G,G, | [D,D]2 [D,D] [D,D]3 | %10
 [D,D][D,D][D,D] [D,D]2 [D,D] | [G,DG]6 | [G,DG][G,DG][G,DG][K:bass] [F,D][E,C][D,B,] | %13
 [C,C]2 [C,C] [G,B,]3 | [D,D]>[D,D][D,D] [D,D]<[D,D][D,C] | [G,,G,]6 |] %16

